X:87
T:[untitled]
T:very pretty and likely to have a relationship to No. 85 opposite
Z:Jack Campin - http://www.campin.me.uk
S:Blaikie MS (NLS MS.1578) p26, Blaikie #81 
M:3/4
L:1/4
V:1 midi program 1 74
V:2 midi program 1 46 bass middle = d transpose -24
Q:1/4=90
K:E Minor
[V:1] B,|E  G F/E/|F d ^c| B    G  F/E/|F D B,|
[V:2] z |e2   e   |d B ^A| B    e  e   |B2  B |
%
[V:1]    E  G F/E/|F d ^c| B/A/ G  F   |E2   ||
[V:2]    e2   e   |d B ^A| B2      B   |e2   ||
%
[V:1] B |d ^c B   |e B  d|^c    B  G   |F D B,|
[V:2] z |b  a g   |g2   g| a    g  e   |B3    |
%
[V:1]    d ^c B   |e B  A| B    e ^d   |e2B   |
[V:2]    b  a g   |g2   a| b2      B   |e3    |
%
[V:1]    d ^c d   |e B  d|^c    B  G   |FD  B,|
[V:2]    d  e f   |g2   g| a    g  e   |B3    |
%
[V:1]    E  G F/E/|F d ^c| B/A/ G  F   |E2   |]
[V:2]    e2   e   |d B ^A| B2      B   |e2   |]
W:Transcription (c) Jack Campin 2009, no mirroring or republication without permission

